assets/Bear/Flat/bear_flat.svg

<svg width="32" height="32" viewBox="0 0 32 32" fill="none" xmlns="http://www.w3.org/2000/svg">
<path d="M12 9.5C12 11.9853 9.98528 14 7.5 14C5.01472 14 3 11.9853 3 9.5C3 7.01472 5.01472 5 7.5 5C9.98528 5 12 7.01472 12 9.5Z" fill="#8C5543"/>
<path d="M29 9.5C29 11.9853 26.9853 14 24.5 14C22.0147 14 20 11.9853 20 9.5C20 7.01472 22.0147 5 24.5 5C26.9853 5 29 7.01472 29 9.5Z" fill="#8C5543"/>
<path d="M30.0019 20.0707C30.0019 20.0707 30.0019 20.0607 30.0012 20.0438C29.9994 19.5025 29.9481 18.9732 29.8519 18.4588C29.5431 16.3875 28.5963 12.7032 25.6894 9.7213C21.5169 5.44068 16.0013 5.7213 16.0013 5.7213C16.0013 5.7213 10.485 5.44068 6.3125 9.7213C3.40625 12.7032 2.45875 16.3875 2.15 18.4588C2.05375 18.9732 2.0025 19.5032 2.00062 20.045C2.00062 20.0613 2 20.07 2 20.07C2 23.5038 3.98813 26.4725 6.87563 27.8894C6.87563 27.8894 10.0006 29.7207 16.0006 29.7207C22.0006 29.7207 25.1256 27.8894 25.1256 27.8894C28.0138 26.4732 30.0019 23.5044 30.0019 20.0707Z" fill="#A56953"/>
<path d="M6.3125 9.7213C7.19787 8.81299 8.14374 8.11005 9.08457 7.56622C8.65325 7.21237 8.10143 7 7.5 7C6.11929 7 5 8.11929 5 9.5C5 9.97648 5.1333 10.4218 5.36464 10.8008C5.65484 10.4337 5.97007 10.0726 6.3125 9.7213Z" fill="#F3AD61"/>
<path d="M25.6894 9.7213C26.0314 10.0722 26.3463 10.4328 26.6363 10.7993C26.867 10.4207 27 9.97587 27 9.5C27 8.11929 25.8807 7 24.5 7C23.8989 7 23.3474 7.21211 22.9162 7.56556C23.8574 8.10948 24.8036 8.81262 25.6894 9.7213Z" fill="#F3AD61"/>
<path d="M11 21.0533C11 20.2989 11.3731 19.598 11.9875 19.1984C14.4425 17.6005 17.5575 17.6005 20.0125 19.1984C20.6269 19.598 21 20.2989 21 21.0533V21.7933C21 24.6687 18.7612 27 16 27C13.2388 27 11 24.6687 11 21.7933V21.0533Z" fill="#F3AD61"/>
<path d="M11 15.9687C11 15.4165 11.4477 14.9688 12 14.9688C12.5523 14.9688 13 15.4165 13 15.9688V16.9688C13 17.521 12.5523 17.9688 12 17.9688C11.4477 17.9688 11 17.521 11 16.9688V15.9687Z" fill="#402A32"/>
<path d="M19 15.9687C19 15.4165 19.4477 14.9688 20 14.9688C20.5523 14.9688 21 15.4165 21 15.9688V16.9688C21 17.521 20.5523 17.9688 20 17.9688C19.4477 17.9688 19 17.521 19 16.9688V15.9687Z" fill="#402A32"/>
<path d="M15.5256 20.8194L14.5118 19.9857C14.3475 19.85 14.2518 19.6482 14.2518 19.435C14.2518 19.0413 14.5712 18.7219 14.965 18.7219H17.0387C17.4325 18.7219 17.7518 19.0413 17.7518 19.435C17.7518 19.6482 17.6562 19.85 17.4918 19.9857L16.4787 20.8194C16.2018 21.0469 15.8018 21.0469 15.5256 20.8194Z" fill="#402A32"/>
<path d="M16 22C16.0608 22 16.1202 22.0111 16.1755 22.0319C16.2441 22.0575 16.3043 22.0971 16.3536 22.1465C16.4032 22.196 16.4429 22.2565 16.4685 22.3253C16.4762 22.346 16.4826 22.3672 16.4876 22.3888C16.5719 22.7257 16.6836 23.1343 16.9146 23.4621C17.127 23.7636 17.4409 24.0001 18 24.0001C18.6543 24.0001 19 23.4657 19 23.0001C19 22.724 19.2239 22.5001 19.5 22.5001C19.7761 22.5001 20 22.724 20 23.0001C20 23.8678 19.3457 25.0001 18 25.0001C17.0747 25.0001 16.4719 24.57 16.0971 24.0381C16.0629 23.9895 16.0305 23.94 16 23.8901C15.9695 23.94 15.9371 23.9895 15.9029 24.0381C15.5281 24.57 14.9253 25.0001 14 25.0001C12.6543 25.0001 12 23.8678 12 23.0001C12 22.724 12.2239 22.5001 12.5 22.5001C12.7761 22.5001 13 22.724 13 23.0001C13 23.4657 13.3457 24.0001 14 24.0001C14.5591 24.0001 14.873 23.7636 15.0854 23.4621C15.3164 23.1343 15.4281 22.7257 15.5124 22.3888C15.5175 22.3669 15.5239 22.3455 15.5318 22.3246C15.5574 22.2561 15.597 22.1959 15.6464 22.1465C15.6957 22.0971 15.7559 22.0575 15.8245 22.0319C15.8798 22.0111 15.9392 22 16 22Z" fill="#402A32"/>
</svg>

<svg xmlns="http://www.w3.org/2000/svg" width="32" height="32" fill="none"><path fill="#8C5543" d="M12 9.5a4.5 4.5 0 1 1-9 0 4.5 4.5 0 0 1 9 0ZM29 9.5a4.5 4.5 0 1 1-9 0 4.5 4.5 0 0 1 9 0Z"/><path fill="#A56953" d="M30.002 20.07v-.026a8.772 8.772 0 0 0-.15-1.585c-.309-2.072-1.256-5.756-4.163-8.738-4.172-4.28-9.688-4-9.688-4s-5.516-.28-9.689 4C3.406 12.703 2.46 16.387 2.15 18.46A8.783 8.783 0 0 0 2 20.07a8.705 8.705 0 0 0 4.876 7.82S10 29.72 16 29.72s9.125-1.83 9.125-1.83a8.703 8.703 0 0 0 4.876-7.82Z"/><path fill="#F3AD61" d="M6.313 9.721a12.813 12.813 0 0 1 2.772-2.155 2.5 2.5 0 0 0-3.72 3.235c.29-.367.605-.728.947-1.08ZM25.69 9.721c.341.351.656.712.946 1.078a2.5 2.5 0 0 0-3.72-3.234 12.814 12.814 0 0 1 2.773 2.156ZM11 21.053c0-.754.373-1.455.988-1.855a7.316 7.316 0 0 1 8.024 0c.615.4.988 1.1.988 1.855v.74C21 24.67 18.761 27 16 27s-5-2.331-5-5.207v-.74Z"/><path fill="#402A32" d="M11 15.969a1 1 0 0 1 2 0v1a1 1 0 0 1-2 0v-1ZM19 15.969a1 1 0 0 1 2 0v1a1 1 0 0 1-2 0v-1ZM15.526 20.82l-1.014-.834a.715.715 0 0 1 .453-1.264h2.074a.713.713 0 0 1 .453 1.264l-1.013.833a.75.75 0 0 1-.953 0ZM16 22a.498.498 0 0 1 .488.389c.084.337.196.745.427 1.073.212.302.526.538 1.085.538.654 0 1-.534 1-1a.5.5 0 0 1 1 0c0 .868-.654 2-2 2-.925 0-1.528-.43-1.903-.962A2.744 2.744 0 0 1 16 23.89c-.03.05-.063.1-.097.148-.375.532-.978.962-1.903.962-1.346 0-2-1.132-2-2a.5.5 0 0 1 1 0c0 .466.346 1 1 1 .56 0 .873-.236 1.085-.538.231-.328.343-.736.427-1.073a.505.505 0 0 1 .313-.357A.498.498 0 0 1 16 22Z"/></svg>
